X: 1
T: Mhari McLean's
M: 4/4
L: 1/8
R: reel
K: Dmaj
|:D2DE ADCD|FD(3DDD DFAd|gfed fdAF|GFED CEGE|
D2DE FDCD|FD(3DDD DFAd|gfed fdcA|1GEAF D2FE:|2GEAF D2FA||
|:d2df abag|fd(3ddd Adfd|e2eg bagf|ge(3eee cege|
Addf abag|fd(3ddd Adfd|gfed cBAF|1GEAF D2FA:|2GEAF D2FE||
